tn/sort-down.svg

<svg viewBox="0 0 15 15" fill="none" xmlns="http://www.w3.org/2000/svg" height="1em" width="1em">
  <path fill-rule="evenodd" clip-rule="evenodd" d="M3.00001 13.2929V0H4.00001V13.2929L6.14645 11.1464L6.85356 11.8536L3.85356 14.8536C3.6583 15.0488 3.34172 15.0488 3.14645 14.8536L0.146454 11.8536L0.853561 11.1464L3.00001 13.2929ZM15 4H9.00001V3H15V4ZM13 8H9.00001V7H13V8ZM11 12H9.00001V11H11V12Z" fill="black"/>
</svg>

<svg viewBox="0 0 15 15" fill="none" xmlns="http://www.w3.org/2000/svg" height="1em" width="1em">
  <path fill-rule="evenodd" clip-rule="evenodd" d="M3 13.293V0h1v13.293l2.146-2.147.708.708-3 3a.5.5 0 0 1-.708 0l-3-3 .708-.708L3 13.293ZM15 4H9V3h6v1Zm-2 4H9V7h4v1Zm-2 4H9v-1h2v1Z" fill="#000"/>
</svg>
